src/icons/paperclip.svg

<?xml version="1.0" encoding="UTF-8"?>
<svg width="19px" height="20px" viewBox="0 0 19 20" version="1.1" xmlns="http://www.w3.org/2000/svg" xmlns:xlink="http://www.w3.org/1999/xlink" xmlns:sketch="http://www.bohemiancoding.com/sketch/ns">
    <!-- Generator: Sketch 3.3.1 (12002) - http://www.bohemiancoding.com/sketch -->
    <title>Shape</title>
    <desc>Created with Sketch.</desc>
    <defs></defs>
    <g id="Page-1" stroke="none" stroke-width="1" fill="none" fill-rule="evenodd" sketch:type="MSPage">
        <path d="M4.12380077,19.9841435 C3.02903061,19.9868546 1.97866749,19.5515138 1.20680077,18.7751435 C-0.402266923,17.1629326 -0.402266923,14.5523545 1.20680077,12.9401435 L10.4638008,3.68314354 C11.5586621,2.59096495 13.3309394,2.59096495 14.4258008,3.68314354 C15.5179794,4.77800492 15.5179794,6.55028216 14.4258008,7.64514354 L7.61580077,14.4551435 C7.44281685,14.6399345 7.18284329,14.7157116 6.93766126,14.6528077 C6.69247923,14.5899037 6.50109799,14.398327 6.43844442,14.1530809 C6.37579084,13.9078348 6.45183332,13.6479387 6.63680077,13.4751435 L13.4468008,6.66514354 C13.8506577,6.25969777 13.9709947,5.65112691 13.7518406,5.12248883 C13.5326866,4.59385075 13.0170648,4.24892518 12.4448008,4.24814354 C12.0668008,4.24814354 11.7108008,4.39514354 11.4448008,4.66314354 L2.18580077,13.9191435 C1.11671609,14.989986 1.11671609,16.7243011 2.18580077,17.7951435 C2.69849233,18.3103714 3.39595252,18.5991495 4.12280077,18.5971435 C4.85480077,18.5971435 5.54280077,18.3121435 6.06080077,17.7951435 L15.5358008,8.32014354 C16.3003487,7.55949715 16.7288477,6.52461799 16.7258008,5.44614354 C16.7288477,4.36766908 16.3003487,3.33278993 15.5358008,2.57214354 C13.9471535,0.987270377 11.375448,0.987270377 9.78680077,2.57214354 L2.76180077,9.59914354 C2.58734151,9.77716338 2.33072013,9.84778044 2.0897443,9.78408001 C1.84876847,9.72037958 1.66056472,9.53217584 1.5968643,9.29120001 C1.53316387,9.05022418 1.60378093,8.7936028 1.78180077,8.61914354 L8.80780077,1.59314354 C10.937701,-0.531047846 14.3849005,-0.531047846 16.5148008,1.59314354 C17.5404911,2.61296507 18.1155528,4.00074716 18.1118008,5.44714354 C18.1155528,6.89353992 17.5404911,8.28132201 16.5148008,9.30114354 L7.04080077,18.7751435 C6.26869003,19.5517606 5.21791732,19.9871219 4.12280077,19.9841435 L4.12380077,19.9841435 Z" id="Shape" fill="#000000" sketch:type="MSShapeGroup"></path>
    </g>
</svg>

<svg xmlns="http://www.w3.org/2000/svg" width="19" height="20" viewBox="0 0 19 20">
    <path fill="#000000" fill-rule="nonzero" d="M4.136 19.985a4.099 4.099 0 0 1-2.917-1.209 4.13 4.13 0 0 1 0-5.835l9.257-9.257a2.805 2.805 0 0 1 3.962 0 2.805 2.805 0 0 1 0 3.962l-6.81 6.81a.693.693 0 1 1-.979-.98l6.81-6.81a1.417 1.417 0 0 0-1.002-2.417c-.378 0-.734.147-1 .415L2.198 13.92a2.743 2.743 0 0 0 0 3.876 2.722 2.722 0 0 0 1.937.802c.732 0 1.42-.285 1.938-.802l9.475-9.475a4.038 4.038 0 0 0 1.19-2.874 4.038 4.038 0 0 0-1.19-2.874 4.07 4.07 0 0 0-5.749 0L2.774 9.6a.693.693 0 1 1-.98-.98L8.82 1.594a5.457 5.457 0 0 1 7.707 0 5.415 5.415 0 0 1 1.597 3.854 5.415 5.415 0 0 1-1.597 3.854l-9.474 9.474a4.099 4.099 0 0 1-2.918 1.209z"/>
</svg>
